X: 11408
T: East Clare, The
R: reel
M: 4/4
K: Ddorian
D2^FA d2cA|GEED EFGc|Addc dcAB|cAGE EDCE|
D2^FA d2cA|GEED EFGc|Addc dcAB|cAGE EDDa||
[|aged cded|c3d egg2|aged cded|cAGE EDDf|
edeg aged|dcAd cAGc|AFFE FGAB|cAGE EDCE||

